X: 31232
T: Paddy Fahey's
R: reel
M: 4/4
K: Gmajor
BG ~G2 Bcdc|BGBd cA=FA|BG ~G2 Bcdg|^fgaf gfdc|
BG ~G2 Bcdc|BGBd cA=FA|BG ~G2 Bcdg|^fgaf g3a||
bgaf dg ~g2|=fdcA =FGA2|(3bag a^f gfd^c|dgfa g3a|
bgaf dgge|=fdcA =FGAc|BGdG Bcdg|^fgaf gfdc||

